!! 00005] TT[TB
!! Eigene Aufnahme
!!!OTL: Xing fu ge
!!!ARE: Asia, China,ÿHubei, Tianmeng
!! Ethnic Group: Han
!! I, 391
!!!SCT: C0107
!!!YEM: Copyright 1995, estate of Helmut Schaffrath.
**kern
*ICvox
*Ivox
*M2/4
*k[]
*C:
{8.dd
16cc
4dd
=1
8cc
16dd
16cc
4g
=2
8cc
4g
8cc
=3
4cc
4dd}
=4
{8cc
4g
8cc
=5
4cc
4dd}
=6
{16g
16a
8f
16g
16a
8g
=7
8g
4d
8e
=8
4g
4cc}
=9
{8g
4d
8e
=10
4g
4cc}
=11
{16cc
16dd
16g
16g
8cc
8ee
=12
4.dd
8cc
=13
8cc
4g
8cc
=14
8.g
16e
4c}
=15
{8.cc
16g
16cc
16dd
8cc
=16
4e
4g
=17
8.g
16cc
4g}
=18
{8e
8g
8cc
8g
=19
8e
8g
8cc
8g
=20
8e
8g
16g
16a
16g
16e
=21
2c}
=22
{8.dd
16cc
8cc
8dd
=23
8cc
4g
8cc
=24
4cc
4dd
=25
8.g
16cc
8dd
8cc
=26
2g}
==
!!!AGN: Xiaodiao. Xin minge
!! neues Volkslied. Beim Singen wird ein Teller mit 2 Ess-Staebchen
!!    geschlagen, FOTO!). Die eine Hand haelt sowohl den Teller als auch
!!    ein Staebchen. Hier demonstriert die Saengerin dies vorab.
!!    Saengerin: Huang Bai
!!    Vor- und Zwischenspiel weggelassen. Vereinzelt Verzierungen.
!!    DIE SAENGERIN TRAEGT NUR DIE ERSTEN 10 ZEILEN IN LEICHT VER-
!!    AENDERTER FORM VOR, DIE NAECHSTEN 10 SIND WIEDERHOLUNG, ES
!!    FOLGEN 2 ABSCHLIESSENDE PHRASEN. MI, SO, DO, SO sollen die
!!    betonten Toene sein.
!!!ONB: ESAC (Essen Associative Code) Database: CHINA
!!!AMT: simple duple
!!!AIN: vox
!!!EED: Helmut Schaffrath
!!!EEV: 1.0
*-
